X: 06087
T: SCOTT MARSDEN'S REEL
C: Bob McQuillen 29 Jan 82
B: Bob's Note Book 6 #87
%R: reel
Z: 2021 John Chambers <jc:trillian.mit.edu>
M: C
L: 1/8
K: F
CD \
| FGAc A2FA | GAFD C2FA | BAGF EFGc | A2F2 FGFD |\
| CDFG AGFA | GFDF CFAc | dcBA BdcB | A2F2 F2 :|
|: fg \
| a2ag fcfa | g2gf eceg | fedB dfba | gfed cBAG |\
| FAFA cAcf | cAcd cfaf | cdfa bgef | g2f2 f2 :|
%%begintext align
%% I've wanted to
%% write this tune for a long while - He was
%% one of the best kids I ever knew - In
%% memoriam, and with much love, until
%% we meet again. . .
%%endtext

%%sep 1 1 500

%%sep 1 1 500

